resources/haticons/SVG/house_siding.svg

<!-- Generated by IcoMoon.io -->
<svg version="1.1" xmlns="http://www.w3.org/2000/svg" width="24" height="24" viewBox="0 0 24 24">
<title>house_siding</title>
<path d="M18.984 12h3l-9.984-9-9.984 9h3v8.016h1.969v-2.016h10.031v2.016h1.969v-8.016zM7.219 9.984h9.563l0.234 0.188v1.828h-10.031v-1.828zM14.578 8.016h-5.156l2.578-2.344zM6.984 15.984v-1.969h10.031v1.969h-10.031z"></path>
</svg>

<svg xmlns="http://www.w3.org/2000/svg" width="24" height="24"><path d="M18.984 12h3L12 3l-9.984 9h3v8.016h1.969V18h10.031v2.016h1.969V12zM7.219 9.984h9.563l.234.188V12H6.985v-1.828zm7.359-1.968H9.422L12 5.672zm-7.594 7.968v-1.969h10.031v1.969H6.984z"/></svg>
